icons/keynote.svg

<!--
  - The MIT License (MIT)
  -
  - Copyright (c) 2015-2024 Elior "Mallowigi" Boukhobza
  -
  - Permission is hereby granted, free of charge, to any person obtaining a copy
  - of this software and associated documentation files (the "Software"), to deal
  - in the Software without restriction, including without limitation the rights
  - to use, copy, modify, merge, publish, distribute, sublicense, and/or sell
  - copies of the Software, and to permit persons to whom the Software is
  - furnished to do so, subject to the following conditions:
  -
  - The above copyright notice and this permission notice shall be included in all
  - copies or substantial portions of the Software.
  -
  - THE SOFTWARE IS PROVIDED "AS IS", WITHOUT WARRANTY OF ANY KIND, EXPRESS OR
  - IMPLIED, INCLUDING BUT NOT LIMITED TO THE WARRANTIES OF MERCHANTABILITY,
  - FITNESS FOR A PARTICULAR PURPOSE AND NONINFRINGEMENT. IN NO EVENT SHALL THE
  - AUTHORS OR COPYRIGHT HOLDERS BE LIABLE FOR ANY CLAIM, DAMAGES OR OTHER
  - LIABILITY, WHETHER IN AN ACTION OF CONTRACT, TORT OR OTHERWISE, ARISING FROM,
  - OUT OF OR IN CONNECTION WITH THE SOFTWARE OR THE USE OR OTHER DEALINGS IN THE
  - SOFTWARE.
  -
  -->

<svg xmlns="http://www.w3.org/2000/svg" version="1.1" viewBox="0 0 434 512" width="16px" height="16px">
  <path fill="#4FC3F7" data-iconColor="Keynote"
        d="M0,270.3823547h433.6066895c-0.9926147,11.850769-6.9824524,19.23703-19.1296997,21.122406H15.1443481C5.8129573,288.9810486,0.0676743,282.6754761,0,270.3823547z M207.1645966,2.7099292c-11.1361389-3.4937053-51.3310394-4.4849119-59.1743622,2.4019406c-7.4243011,6.5188437-9.0014954,9.2825899-19.5321655,11.1573658H86.6740875c-16.2299576,0-29.3869362,13.1569805-29.3869362,29.3869381v26.6539917H43.4403992c-12.8101559-0.5890503-22.5770016,11.7458267-23.0932198,21.8975372l-8.39114,162.2258911h408.897522l-7.173584-163.0010223c-0.6055298-11.4627609-12.3986511-21.579155-23.5136108-21.122406H70.4388199V44.4605675c0-8.9664879,7.2687759-16.2352638,16.2352676-16.2352638h46.7324371c11.3350067,0,7.8973846,14.3399086,24.8250275,14.3399086h42.1681671c5.0046692,0,9.9587402-1.5156326,13.875351-4.6312256C223.4161987,31.547327,223.0072632,7.2243409,207.1645966,2.7099292z M236.2637177,478.5230103V300.4535217h-45.4336395v178.0694885h-83.8049164V512h213.0435638v-33.4769897H236.2637177z"/>
</svg>

<svg xmlns="http://www.w3.org/2000/svg" viewBox="0 0 434 512"><path fill="#4fc3f7" d="M0 270.382h433.607c-.993 11.851-6.983 19.237-19.13 21.123H15.144C5.813 288.98.068 282.675 0 270.382M207.165 2.71c-11.137-3.494-51.331-4.485-59.175 2.402-7.424 6.519-9.001 9.282-19.532 11.157H86.674c-16.23 0-29.387 13.157-29.387 29.387V72.31H43.44c-12.81-.589-22.577 11.746-23.093 21.898l-8.391 162.226h408.898L413.68 93.433c-.606-11.463-12.399-21.58-23.514-21.123H70.44V44.46c0-8.966 7.269-16.235 16.235-16.235h46.733c11.335 0 7.897 14.34 24.825 14.34H200.4c5.004 0 9.958-1.515 13.875-4.631 9.141-6.387 8.732-30.71-7.11-35.224m29.099 475.813v-178.07H190.83v178.07h-83.805V512H320.07v-33.477z" data-iconColor="Keynote"/></svg>
